X:1
T:Rest at Home
T:J. Horn 
T:Rest at Home
T:Public Domain
T:Public Domain
T:Public Domain
C:J. Horn
Z:Public Domain
%%score ( 1 2 ) ( 3 4 )
L:1/8
M:6/8
K:A
V:1 treble 
V:2 treble 
V:3 bass 
V:4 bass 
V:1
 [Ec] | [Ec]>[Ec][Ec] [EB]>[EB][EB] | [FA][FA][^EG] [FA]2!f! [DF] | [CE]>[DF][CE] [EA]>[EB][EA] | %4
w: 1.~What-|e’er my af- flict- ions or|tri- als may be, I|want to live faith- ful, my|
w: 2.~Though|dark is my path in this|val- ley of sin, O|give me the light of Thy|
w: 3.~I|want to be hum- ble, re-|signed to Thy will, In|sun- shine or tem- pest to|
w: 4.~No|par- ent so ten- der, so|friend is so dear, No|voice like my Sav- ior’s can|
w: 5.~When|shall I rise from this des-|ert of gloom, Be- yond|the deep shad- ows that dark-|
 [GB]>[Ac][GB] [GB]2 [Ac] | [Ac]>[Ac][Ac] [GB]>[GB][GB] | [FA][FA][^EG] F2 [DF] | %7
w: Sav- ior, to Thee, To|walk as a Christ- ian, my|tem- per sub- dued, And|
w: com- fort with- in, To|shield me from dan- ger wher-|ev- er I roam, And|
w: fol- low Thee still, Yet,|lured by the tempt- er, how|of- ten I roam, For-|
w: ban- ish my fear; By|faith in Thy prom- ise to|Thee I will come, O,|
w: en the tomb, In E-|den, dear E- den, trans- port-|ed to roam, And sing|
 [Fd]>[Fd][Fd] [Ec]>[DB][CA] | [EB][EA][EG] [EA]2 z || %9
w: through Thy mer- cy, in spir-|it re- newed. *|
w: me at last to Thy peo-|ple at home. *|
w: ful, a- las! of my God|and my home. Home,|
w: me a place with Thy peo-|ple at home. *|
w: le- lu- jahs with an- gels|at home? * *|
"^Refrain" (e2 c) ([Ec]2 [CA]) [EB]3- [EB]2 z |!p! [EB]3 (A>c[Ae]) | [GB]3- [GB]2 [Ac] | %12
w: |||
w: |||
w: home, * home, * sweet, *|home, I * *|there * is|
w: |||
w: |||
 [Ac]>[Ac][Ac] [GB]>[GB][GB] | [FA][FA][^EG] F2!f! [DF] | [Fd]>[Fd][Fd] [Ec]>[DB][CA] | %15
w: |||
w: |||
w: rest with Thy peo- ple at|home, I know there is|with Thy peo- ple at home.|
w: |||
w: |||
 [EB][EA][EG] [EA]2 |] %16
w: |
w: |
w: |
w: |
w: |
V:2
 x | x6 | x6 | x6 | x6 | x6 | x3 F2 x | x6 | x6 || E3 x9 | x3 E2 x | x6 | x6 | x3 F2 x | x6 | x5 |] %16
w: ||||||feel,||||||||||
w: ||||||guide||||||||||
w: ||||||get-|||sweet|know|||rest|||
w: ||||||give||||||||||
w: ||||||hal-||||||||||
V:3
 [A,,A,] | [A,,A,]>[A,,A,][A,,A,] [E,G,]>[E,D][E,D] | [F,C][F,C][C,C] [F,C]2 A, | %3
 [A,,A,]>[A,,A,][A,,A,] [A,,C]>[E,D][A,C] | [E,E]>[E,E][E,E] [E,E]2 [A,,E] | %5
 [A,,E]>[A,,E][A,,E] [E,E]>[E,E][E,E] | [F,C][F,C][G,C] [A,C]2 A, | %7
 [D,A,]>[D,A,][D,A,] [E,A,]>[E,E][A,E] | [E,D][E,C](B,/D/) [A,,C]2 z || %9
 C2 A, A,2 E, [E,G,]3- [E,G,]2 z | [A,,C]3 [A,C]3 | [E,E]3- [E,E]2 [A,,E] | %12
 [A,,E]>[A,,E][A,,E] [E,E]>[E,E][E,E] | [F,C][F,C][C,B,] [D,A,]2 [D,A,] | %14
 [D,A,]>[D,A,][D,A,] [E,A,]>[E,E][A,E] | [E,D][E,C][E,B,] [A,,C]2 |] %16
V:4
 x | x6 | x5 A, | x6 | x6 | x6 | x5 A, | x6 | x2 E, x3 || A,,3 A,,3 x6 | x6 | x6 | x6 | x6 | x6 | %15
 x5 |] %16

